public/avatar/body/25.svg

<svg xmlns:xlink="http://www.w3.org/1999/xlink" height="82" width="84.85" xmlns="http://www.w3.org/2000/svg"><g transform="translate(37.4 42.25)"><use height="38" transform="translate(-11.95 -17.45)" width="32.05" xlink:href="#a"/><use height="38.95" transform="translate(-12.45 -17.95)" width="33.05" xlink:href="#b"/><use height="22.45" transform="translate(-15.15 -7.1)" width="51.4" xlink:href="#c"/></g><defs><path d="M27.35 7.4q2.15 4.15 3.55 8.75 1.45 4.7 1.15 9.5-.35 4.95-4.2 8.1-3.8 3.2-8.75 4.05l-2.6.2q-3.6 0-7.05-1.15-4.65-1.6-7.1-5.5Q-.2 27.4.05 23q.2-4.4 2-9.3Q3.85 8.75 7 5.05 10.1 1.3 14.7.1l1.8-.1q1.9.05 3.7.8 4.75 2.05 7.15 6.6" fill="#fff" fill-rule="evenodd" transform="translate(-.05)" id="d"/><path d="M27.35 7.4Q24.95 2.85 20.2.8 17.55-.3 14.7.1 10.1 1.3 7 5.05q-3.15 3.7-4.95 8.65-1.8 4.9-2 9.3-.25 4.4 2.3 8.35 2.45 3.9 7.1 5.5 4.65 1.55 9.65.95 4.95-.85 8.75-4.05 3.85-3.15 4.2-8.1.3-4.8-1.15-9.5-1.4-4.6-3.55-8.75Z" fill="none" stroke="#000" stroke-linecap="round" stroke-linejoin="round" transform="translate(.45 .5)" id="e"/><use height="38" width="32.05" xlink:href="#d" id="a"/><use height="38.95" width="33.05" xlink:href="#e" id="b"/><g id="c"><path d="m18.9-1.3-.2-.7q4.25.4 7.55-1.3 1.6-.8 2.65-1.75l.9 1.3 1.4 2.2 1.35 2.4.1.2.75 2.55q-.65 1.45-2.55 2.3-3.45 1.45-10.8-.4.85-1.1 1.4-2.75.5-1.7-2.55-4.05M-6.35 13.9l-3.25-.8q-3-2.15-2.8-3.55.2-1.4.8-1.35l.1.1v-.05q4.05 2.35 10.2 2.6 5.6.5 11.25 0l3.2-.9q-4.9 2.1-8.3 2.85-5.55 1.3-11.2 1.1" fill="#900" fill-rule="evenodd" transform="translate(15.15 7.1)"/><path d="M18.9-1.3q3.05 2.35 2.55 4.05-.55 1.65-1.4 2.75l1.65 1.3-.1.65q-.45 1.85-1.95 3.2-12 6.2-26 3.25 5.65.2 11.2-1.1 3.4-.75 8.3-2.85l-3.2.9q-5.65.5-11.25 0-6.15-.25-10.2-2.6-.25-.9-.1-.05-2.15-.9-2.65-2.5-.55-1.6-.3-3.05.25-1.45 3.15-4.4v.05q1.2 6.6 7.8 8.3 6.55 1.7 13.05.65 6.45-1.1 9.45-8.55m1.15 6.8q-3.8 3.5-6.9 4.45 3.1-.95 6.9-4.45" fill="#c00" fill-rule="evenodd" transform="translate(15.15 7.1)"/><path d="M-11.5 8.25v.05l-.1-.1q-.15-.85.1.05l-.1-.05.1.05" fill="#fff" fill-rule="evenodd" transform="translate(15.15 7.1)"/><path d="M20.05 5.5q7.35 1.85 10.8.4 1.9-.85 2.55-2.3l-.75-2.55-.1-.2-1.35-2.4-1.4-2.2-.9-1.3q-1.05.95-2.65 1.75-3.3 1.7-7.55 1.3l.2.7q3.05 2.35 2.55 4.05-.55 1.65-1.4 2.75l1.65 1.3-.1.65q-.45 1.85-1.95 3.2-12 6.2-26 3.25l-3.25-.8q-3-2.15-2.8-3.55.2-1.4.8-1.35-2.15-.9-2.65-2.5-.55-1.6-.3-3.05.25-1.45 3.15-4.4v.05q1.2 6.6 7.8 8.3 6.55 1.7 13.05.65 6.45-1.1 9.45-8.55M13.15 9.95q3.1-.95 6.9-4.45m-26.4 8.4q5.65.2 11.2-1.1 3.4-.75 8.3-2.85l-3.2.9q-5.65.5-11.25 0-6.15-.25-10.2-2.6v.05l-.1-.1.1.05" fill="none" stroke="#000" stroke-linecap="round" stroke-linejoin="round" transform="translate(15.15 7.1)"/><path d="M31.2-1.55q1.85-.35 2.35-1.85m-3.75-.35q1.45-.6 2.05-1.6m-2.95.3 1.3-1.55m3.2 10.2q1.85-.45 2.35-1.6M32.55.85Q34.45.6 35.15-1" fill="none" stroke="#900" stroke-linecap="round" stroke-linejoin="round" transform="translate(15.15 7.1)"/></g></defs></svg>

<?xml version="1.0" encoding="UTF-8" standalone="no"?>
<svg xmlns:xlink="http://www.w3.org/1999/xlink" height="82.0px" width="84.85px" xmlns="http://www.w3.org/2000/svg">
  <g transform="matrix(1.0, 0.0, 0.0, 1.0, 37.4, 42.25)">
    <use height="38.0" transform="matrix(1.0, 0.0, 0.0, 1.0, -11.95, -17.45)" width="32.05" xlink:href="#sprite0"/>
    <use height="38.95" transform="matrix(1.0, 0.0, 0.0, 1.0, -12.45, -17.95)" width="33.05" xlink:href="#sprite1"/>
    <use height="22.45" transform="matrix(1.0, 0.0, 0.0, 1.0, -15.15, -7.1)" width="51.4" xlink:href="#shape2"/>
  </g>
  <defs>
    <g id="sprite0" transform="matrix(1.0, 0.0, 0.0, 1.0, -0.05, 0.0)">
      <use height="38.0" transform="matrix(1.0, 0.0, 0.0, 1.0, 0.05, 0.0)" width="32.05" xlink:href="#shape0"/>
    </g>
    <g id="shape0" transform="matrix(1.0, 0.0, 0.0, 1.0, -0.05, 0.0)">
      <path d="M27.35 7.4 Q29.5 11.55 30.9 16.15 32.35 20.85 32.05 25.65 31.7 30.6 27.85 33.75 24.05 36.95 19.1 37.8 L16.5 38.0 Q12.9 38.0 9.45 36.85 4.8 35.25 2.35 31.35 -0.2 27.4 0.05 23.0 0.25 18.6 2.05 13.7 3.85 8.75 7.0 5.05 10.1 1.3 14.7 0.1 L16.5 0.0 Q18.4 0.05 20.2 0.8 24.95 2.85 27.35 7.4" fill="#ffffff" fill-rule="evenodd" stroke="none"/>
    </g>
    <g id="sprite1" transform="matrix(1.0, 0.0, 0.0, 1.0, 0.45, 0.5)">
      <use height="38.95" transform="matrix(1.0, 0.0, 0.0, 1.0, -0.45, -0.5)" width="33.05" xlink:href="#shape1"/>
    </g>
    <g id="shape1" transform="matrix(1.0, 0.0, 0.0, 1.0, 0.45, 0.5)">
      <path d="M27.35 7.4 Q24.95 2.85 20.2 0.8 17.55 -0.3 14.7 0.1 10.1 1.3 7.0 5.05 3.85 8.75 2.05 13.7 0.25 18.6 0.05 23.0 -0.2 27.4 2.35 31.35 4.8 35.25 9.45 36.85 14.1 38.4 19.1 37.8 24.05 36.95 27.85 33.75 31.7 30.6 32.05 25.65 32.35 20.85 30.9 16.15 29.5 11.55 27.35 7.4 Z" fill="none" stroke="#000000" stroke-linecap="round" stroke-linejoin="round" stroke-width="1.0"/>
    </g>
    <g id="shape2" transform="matrix(1.0, 0.0, 0.0, 1.0, 15.15, 7.1)">
      <path d="M18.9 -1.3 L18.7 -2.0 Q22.95 -1.6 26.25 -3.3 27.85 -4.1 28.9 -5.05 L29.8 -3.75 31.2 -1.55 32.55 0.85 32.65 1.05 33.4 3.6 Q32.75 5.05 30.85 5.9 27.4 7.35 20.05 5.5 20.9 4.4 21.45 2.75 21.95 1.05 18.9 -1.3 M-6.35 13.9 L-9.6 13.1 Q-12.6 10.95 -12.4 9.55 -12.2 8.15 -11.6 8.2 L-11.5 8.3 -11.5 8.25 Q-7.45 10.6 -1.3 10.85 4.3 11.35 9.95 10.85 L13.15 9.95 Q8.25 12.05 4.85 12.8 -0.7 14.1 -6.35 13.9" fill="#990000" fill-rule="evenodd" stroke="none"/>
      <path d="M18.9 -1.3 Q21.95 1.05 21.45 2.75 20.9 4.4 20.05 5.5 L21.7 6.8 21.6 7.45 Q21.15 9.3 19.65 10.65 7.65 16.85 -6.35 13.9 -0.7 14.1 4.85 12.8 8.25 12.05 13.15 9.95 L9.95 10.85 Q4.3 11.35 -1.3 10.85 -7.45 10.6 -11.5 8.25 -11.75 7.35 -11.6 8.2 -13.75 7.3 -14.25 5.7 -14.8 4.1 -14.55 2.65 -14.3 1.2 -11.4 -1.75 L-11.4 -1.7 Q-10.2 4.9 -3.6 6.6 2.95 8.3 9.45 7.25 15.9 6.15 18.9 -1.3 M20.05 5.5 Q16.25 9.0 13.15 9.95 16.25 9.0 20.05 5.5" fill="#cc0000" fill-rule="evenodd" stroke="none"/>
      <path d="M-11.5 8.25 L-11.5 8.3 -11.6 8.2 Q-11.75 7.35 -11.5 8.25 L-11.6 8.2 -11.5 8.25" fill="#ffffff" fill-rule="evenodd" stroke="none"/>
      <path d="M20.05 5.5 Q27.4 7.35 30.85 5.9 32.75 5.05 33.4 3.6 L32.65 1.05 32.55 0.85 31.2 -1.55 29.8 -3.75 28.9 -5.05 Q27.85 -4.1 26.25 -3.3 22.95 -1.6 18.7 -2.0 L18.9 -1.3 Q21.95 1.05 21.45 2.75 20.9 4.4 20.05 5.5 L21.7 6.8 21.6 7.45 Q21.15 9.3 19.65 10.65 7.65 16.85 -6.35 13.9 L-9.6 13.1 Q-12.6 10.95 -12.4 9.55 -12.2 8.15 -11.6 8.2 -13.75 7.3 -14.25 5.7 -14.8 4.1 -14.55 2.65 -14.3 1.2 -11.4 -1.75 L-11.4 -1.7 Q-10.2 4.9 -3.6 6.6 2.95 8.3 9.45 7.25 15.9 6.15 18.9 -1.3 M13.15 9.95 Q16.25 9.0 20.05 5.5 M-6.35 13.9 Q-0.7 14.1 4.85 12.8 8.25 12.05 13.15 9.95 L9.95 10.85 Q4.3 11.35 -1.3 10.85 -7.45 10.6 -11.5 8.25 L-11.5 8.3 -11.6 8.2 -11.5 8.25" fill="none" stroke="#000000" stroke-linecap="round" stroke-linejoin="round" stroke-width="1.0"/>
      <path d="M31.2 -1.55 Q33.05 -1.9 33.55 -3.4 M29.8 -3.75 Q31.25 -4.35 31.85 -5.35 M28.9 -5.05 L30.2 -6.6 M33.4 3.6 Q35.25 3.15 35.75 2.0 M32.55 0.85 Q34.45 0.6 35.15 -1.0" fill="none" stroke="#990000" stroke-linecap="round" stroke-linejoin="round" stroke-width="1.0"/>
    </g>
  </defs>
</svg>
